X:2
T:So Rax. GS.002
M:6/8
L:1/8
Q:3/8=120
S:George Spencer m/s, Leeds,1831
R:.Jig
O:England
A:Leeds
H:1831
Z:vmp.Cherri Graebe
K:Bb
F | B>cB F>fd | ecB AGF | BcB Ffd | ecA B3 :|!
|: cAF d2d |ecA fdB | cAF d2d | ecA B3 :|!
|:baf fdf | edc fdB | bag fdf | ecA â€ crâ€B3 :|!
|: fdg ece | Acf dcd | fdg ece | Acf B3 ğŸ˜

